!!!OTL: ES MURMELN DIE WELLEN
!!!ARE: Europa, Mitteleuropa, Deutschland
!!!SCT: B0194
!!!YEM: Copyright 1995, estate of Helmut Schaffrath.
**kern
*ICvox
*Ivox
*M6/8
*k[b-]
*F:
{8cc
=1
2cc
8a
8dd
=2
2cc
8a}
{8ff
=3
2ee
8dd
8ee
=4
2ff
8ee}
{8dd
=5
2cc
8a
8dd
=6
2cc
8a}
{8ff
=7
2ee
8dd
8ee
=8
4.ff
4r}
{8f
=9
2ff
8ee
8dd
=10
2cc
8b-}
{8a
=11
2g
8a
8b-
=12
4.a
4r}
{8f
=13
2ff
8ee
8dd
=14
2cc
8b-}
{8a
=15
8g
8dd
8cc
8b-
8a
8g
=16
4.f
4r}
==
!!!AGN: Natur - Lied, Wasser
!!!ONB: ESAC (Essen Associative Code) Database: BOEHME
!!!AMT: compound duple
!!!AIN: vox
!!!EED: Helmut Schaffrath
!!!EEV: 1.0
*-
